X:15
M:C
L:1/8
Q:1/4=130
K:G
|: B>c | c>g{ag}f>g e>g{ag}f>g | b>ga>f g>ed>B | (3cde (3ABc (3Bcd A>B | (3AGF (3GFE D2 B>c |!
d>g{ag}f>g e>g{ag}f>g | {a/}b>ga>f g>ed>B | c>de>f {a/}g>fg>e | d>Bc>A G2 :|

